!! 00000] TT[WS
!!!OTL: Jiemei erren
!!!ARE: Asia, China,ÿShanxi Dingxiang
!! Ethnic Group: Han
!! WI, 239
!!!SCT: J0285
!!!YEM: Copyright 1995, estate of Helmut Schaffrath.
**kern
*ICvox
*Ivox
*M2/4
*k[b-]
*F:
{8ff
8dd
8dd
8cc
=1
8ff
8dd
8dd
8cc
=2
8dd
8cc
8g
16cc
16cc
=3
8cc
16cc
16a
8g
8cc}
=4
{8r
8f
8dd
8cc
=5
8ff
8cc
8cc
8g
=6
8cc
8g
8e
16g
16g
=7
2c}
=8
{8a
16cc
16cc
8g
8cc
=9
8e
8f
4c
=10
8a
16cc
16cc
8g
8cc
=11
8e
8f
4c}
=12
{8cc
16cc
16cc
8g
8cc
=13
8e
8f
4c
=14
8a
16cc
16cc
8g
8cc
=15
8e
8f
4c}
=16
{16g
16cc
16g
16f
8e
8f
=17
8g
8a
8cc
8cc
=18
8ff
8dd
8dd
8cc
=19
8ff
16dd
16cc
8d
8f
=20
16g
16f
8d
4c}
==
!!!AGN: Xiaodiao. Qingge, Sichun
!!!ONB: ESAC (Essen Associative Code) Database: CHINA
!!!AMT: simple duple
!!!AIN: vox
!!!EED: Helmut Schaffrath
!!!EEV: 1.0
*-
